packages/sights/assets/overlays/2RFF3Uf8.svg

<svg width="500" height="375" viewBox="0 0 500 375" fill="none" xmlns="http://www.w3.org/2000/svg">
<path d="M493.359 72.7901C493.359 72.7901 449.289 29.3801 446.229 27.5401L429.879 18.0601L399.879 5.12012" stroke="white" stroke-miterlimit="10"/>
<path d="M493.359 271.52L244.909 369.62L242.459 367.82L247.349 344.28C247.349 344.28 256.679 252.1 153.039 243.85C153.039 243.85 80.7494 237.85 7.28937 269.99" stroke="white" stroke-miterlimit="10"/>
<path d="M493.359 110.09C493.359 110.09 151.199 66.8302 101.209 65.9502C101.209 65.9502 141.109 14.0802 153.039 5.16016" stroke="white" stroke-miterlimit="10"/>
<path d="M367.889 4C367.889 4 430.489 18.68 452.289 40L493.359 80.36" stroke="white" stroke-miterlimit="10"/>
<path d="M352.369 5.2002C352.369 5.2002 377.369 60.7102 386.669 96.8702L395.179 102.29L410.609 133.29C410.609 133.29 409.999 140.93 410.609 143.22C410.609 143.22 417.189 181.44 407.099 233.22C407.099 233.22 403.659 246.98 416.389 262V267.5L416.959 269.56L414.209 292.72L401.549 307.72" stroke="white" stroke-miterlimit="10"/>
<path d="M493.359 244C493.359 244 285.909 305.1 264.469 306.52C264.469 306.52 244.299 213.12 126.899 214.04C126.899 214.04 70.4894 216.33 31.9694 226.88" stroke="white" stroke-miterlimit="10"/>
<path d="M101.21 65.9502L93.6505 75.1202C93.6505 75.1202 77.3705 101.72 107.18 165.47L128.73 214.07" stroke="white" stroke-miterlimit="10"/>
<path d="M242.459 367.82L239.479 365.15L238.339 361.02L230.999 352.31" stroke="white" stroke-miterlimit="10"/>
<path d="M111.479 244.55C111.479 244.55 145.089 248.74 159.299 256.55C159.299 256.55 190.409 271.55 212.879 306.55C212.879 306.55 231.459 333.01 230.999 369.73" stroke="white" stroke-miterlimit="10"/>
<path d="M210.74 370.21C209.764 364.549 208.119 359.023 205.84 353.75C185.29 306.1 118.17 289.23 55.9402 316.07C37.614 323.868 20.9889 335.173 7.00021 349.35" stroke="white" stroke-miterlimit="10"/>
<path d="M197.18 138.95L199.12 142.74L198.12 144.57H161.83L158.74 143.31L153.23 137.69H150.48C150.48 137.69 127.21 137.69 124.23 141.13L122.74 143.88L127.55 154.78L130.99 156.5C130.99 156.5 208.99 158.79 218.93 154.89L219.73 152.83L218.36 145.6L215.83 142.6C215.83 142.6 200.5 138.03 197.18 138.95Z" stroke="white" stroke-miterlimit="10"/>
<path d="M444.859 143.41L443.709 143.8L448.979 146.09L448.449 146.93L435.149 146.63L428.289 143.41L425.919 142.5L416.979 144.71L416.139 146.63L416.979 152.82L419.119 154.04C419.119 154.04 449.769 154.27 452.439 153.2L454.279 152.2L455.199 148.28L453.899 146.09C453.899 146.09 448.369 143.11 444.859 143.41Z" stroke="white" stroke-miterlimit="10"/>
</svg>

<svg width="500" height="375" fill="none" xmlns="http://www.w3.org/2000/svg"><path d="M493.359 72.79s-44.07-43.41-47.13-45.25l-16.35-9.48-30-12.94M493.359 271.52l-248.45 98.1-2.45-1.8 4.89-23.54s9.33-92.18-94.31-100.43c0 0-72.29-6-145.75 26.14M493.359 110.09s-342.16-43.26-392.15-44.14c0 0 39.9-51.87 51.83-60.79" stroke="#fff" stroke-miterlimit="10"/><path d="M367.889 4s62.6 14.68 84.4 36l41.07 40.36M352.369 5.2s25 55.51 34.3 91.67l8.51 5.42 15.43 31s-.61 7.64 0 9.93c0 0 6.58 38.22-3.51 90 0 0-3.44 13.76 9.29 28.78v5.5l.57 2.06-2.75 23.16-12.66 15" stroke="#fff" stroke-miterlimit="10"/><path d="M493.359 244s-207.45 61.1-228.89 62.52c0 0-20.17-93.4-137.57-92.48 0 0-56.41 2.29-94.93 12.84" stroke="#fff" stroke-miterlimit="10"/><path d="m101.21 65.95-7.56 9.17s-16.28 26.6 13.53 90.35l21.55 48.6M242.459 367.82l-2.98-2.67-1.14-4.13-7.34-8.71" stroke="#fff" stroke-miterlimit="10"/><path d="M111.479 244.55s33.61 4.19 47.82 12c0 0 31.11 15 53.58 50 0 0 18.58 26.46 18.12 63.18" stroke="#fff" stroke-miterlimit="10"/><path d="M210.74 370.21a72.569 72.569 0 0 0-4.9-16.46c-20.55-47.65-87.67-64.52-149.9-37.68A152.803 152.803 0 0 0 7 349.35M197.18 138.95l1.94 3.79-1 1.83h-36.29l-3.09-1.26-5.51-5.62h-2.75s-23.27 0-26.25 3.44l-1.49 2.75 4.81 10.9 3.44 1.72s78 2.29 87.94-1.61l.8-2.06-1.37-7.23-2.53-3s-15.33-4.57-18.65-3.65ZM444.859 143.41l-1.15.39 5.27 2.29-.53.84-13.3-.3-6.86-3.22-2.37-.91-8.94 2.21-.84 1.92.84 6.19 2.14 1.22s30.65.23 33.32-.84l1.84-1 .92-3.92-1.3-2.19s-5.53-2.98-9.04-2.68Z" stroke="#fff" stroke-miterlimit="10"/></svg>
